X: 2041
T: Ashplant, The
R: reel
M: 4/4
K: Edorian
|:"Em"BE~E2 BAGA|BE~E2 "D"~G3A|1 "Em"BE~E2 BABd|gedB "D"A2GA:|2 "Em"~B3A (3Bcd ef|gedB "D"A2GA||
|:"Em"B2eB fBeB|~B2ed "D"BAGA|1 "Em"B2eB fBeg|fedB "D"A2GA:|2 "Em"(3Bcd ef ~g3a|gedB "D"A2GA||

